ui/StatusQ/src/assets/img/icons/smileys-and-people.svg

<svg fill="none" height="24" viewBox="0 0 24 24" width="24" xmlns="http://www.w3.org/2000/svg"><g fill="#000"><path clip-rule="evenodd" d="m12 20.5c4.6944 0 8.5-3.8056 8.5-8.5 0-4.69442-3.8056-8.5-8.5-8.5-4.69442 0-8.5 3.80558-8.5 8.5 0 4.6944 3.80558 8.5 8.5 8.5zm0 1.5c5.5228 0 10-4.4772 10-10 0-5.52285-4.4772-10-10-10-5.52285 0-10 4.47715-10 10 0 5.5228 4.47715 10 10 10z" fill-rule="evenodd"/><path d="m10 9.5c0 1.1046-.67157 2-1.5 2s-1.5-.8954-1.5-2c0-1.10457.67157-2 1.5-2s1.5.89543 1.5 2z"/><path d="m17 9.5c0 1.1046-.6716 2-1.5 2s-1.5-.8954-1.5-2c0-1.10457.6716-2 1.5-2s1.5.89543 1.5 2z"/><path clip-rule="evenodd" d="m8.21503 14.583c-.40963-.0392-.69319.3937-.43612.715.78957.9869 2.10091 1.952 4.22109 1.952 2.1202 0 3.4315-.9651 4.2211-1.952.2571-.3213-.0265-.7542-.4361-.715-.9685.0926-2.2302.167-3.785.167s-2.81647-.0744-3.78497-.167zm-2.42199-1.2579c.27326-.3137.70187-.481 1.14676-.411.89472.1408 2.58134.3359 5.0602.3359 2.4789 0 4.1655-.1951 5.0602-.3359.4449-.07.8735.0973 1.1468.411.2827.3246.393.8061.1855 1.2665-.6338 1.4064-2.4 4.1584-6.3925 4.1584-3.99253 0-5.75873-2.752-6.39251-4.1584-.20749-.4604-.09717-.9419.18555-1.2665z" fill-rule="evenodd"/></g></svg>

<svg width="24" height="24" viewBox="0 0 24 24" fill="none" xmlns="http://www.w3.org/2000/svg">
<path fill-rule="evenodd" clip-rule="evenodd" d="M12 20.5C16.6944 20.5 20.5 16.6944 20.5 12C20.5 7.30558 16.6944 3.5 12 3.5C7.30558 3.5 3.5 7.30558 3.5 12C3.5 16.6944 7.30558 20.5 12 20.5ZM12 22C17.5228 22 22 17.5228 22 12C22 6.47715 17.5228 2 12 2C6.47715 2 2 6.47715 2 12C2 17.5228 6.47715 22 12 22Z" fill="black"/>
<path d="M10 9.5C10 10.6046 9.32843 11.5 8.5 11.5C7.67157 11.5 7 10.6046 7 9.5C7 8.39543 7.67157 7.5 8.5 7.5C9.32843 7.5 10 8.39543 10 9.5Z" fill="black"/>
<path d="M17 9.5C17 10.6046 16.3284 11.5 15.5 11.5C14.6716 11.5 14 10.6046 14 9.5C14 8.39543 14.6716 7.5 15.5 7.5C16.3284 7.5 17 8.39543 17 9.5Z" fill="black"/>
<path fill-rule="evenodd" clip-rule="evenodd" d="M8.21503 14.583C7.8054 14.5438 7.52184 14.9767 7.77891 15.298C8.56848 16.2849 9.87982 17.25 12 17.25C14.1202 17.25 15.4315 16.2849 16.2211 15.298C16.4782 14.9767 16.1946 14.5438 15.785 14.583C14.8165 14.6756 13.5548 14.75 12 14.75C10.4452 14.75 9.18353 14.6756 8.21503 14.583ZM5.79304 13.3251C6.0663 13.0114 6.49491 12.8441 6.9398 12.9141C7.83452 13.0549 9.52114 13.25 12 13.25C14.4789 13.25 16.1655 13.0549 17.0602 12.9141C17.5051 12.8441 17.9337 13.0114 18.207 13.3251C18.4897 13.6497 18.6 14.1312 18.3925 14.5916C17.7587 15.998 15.9925 18.75 12 18.75C8.00747 18.75 6.24127 15.998 5.60749 14.5916C5.4 14.1312 5.51032 13.6497 5.79304 13.3251Z" fill="black"/>
</svg>
